!!!!SEGMENT: pl-gd--ee-2628--007-016_stabile-annibale--sacrarum-modulationum-veni-sancte-spiritus-a-8.krn
!!!cenid: 15xx:1105
!!!COM: Stabile, Annibale
!!!COM-rismID: pe30009662
!!!CDT: ~1535-1595/04
!!!CNT: Italian
!!!GTL: Sacrarum modulationum
!!!OTL: Veni Sancte Spiritus a 8
!!!OMV: 016
!!!PDT: 1585
!!!AGN:
!!!YEC: Copyright 2022 Narodowy Instytut Fryderyka Chopina (https://polishscores.org)
!!!YEM: License CC-BY-4.0 (https://creativecommons.org/licenses/by/4.0)
!!!SMS-siglum: PL-GD
!!!SMS-shelfmark: Ee 2628
!!!SMS-shelfwork: 007-016 G
!!!SMS-variant:
!!!SMS-altvar:
!!!NIFC-rismSourceID: 1001203361
!!!NIFC-rismChildID: 990060529
!!!NIFC-islandoraID: pl-gd:66139
!!!URL-pdf-islandora: https://repozytorium.nifc.pl/islandora/object/pl-gd%3A66139/datastream/PDF/view
!!!URL-scan: https://polish.musicsources.pl/pl/lokalizacje/galeria/klocki-introligatorskie/673 @EN{Scan on Polish Music Sources Website} @PL{Skany w portalu Dziedzictwo Muzyki Polskiej w otwartym dostępie}
!!!IIIF:
!!!ONB-nifc: UWAGA: Cantus: s. 102-113, Tenore: s. 258-269, Basso: s. 414-425, Quinto: s. 736-747, Sextus: s. 624-632. Dla głosu Alto proszę skorzystać z https://pbc.gda.pl/dlibra/publication/87583/edition/79412/content, s. 25-48. Uwaga: utwory podzielone wg spisu treści dostępnych na końcu ksiąg – proszę sprawdzać sąsiednie tytuły i zwracać uwagę na liczbę głosów. Głosy Quinto i Sextus proszę umieszczać wg ambitusu (może się różnić w zależności od utworu).
!!!AIN: 2 alto 2 bass 2 soprn 2 tenor
!!!key: d
**kern	**text	**kern	**text	**kern	**text	**kern	**text	**kern	**text	**kern	**text	**kern	**text	**kern	**text
*part8	*	*part7	*	*part6	*	*part5	*	*part4	*	*part3	*	*part2	*	*part1	*
*staff8	*	*staff7	*	*staff6	*	*staff5	*	*staff4	*	*staff3	*	*staff2	*	*staff1	*
*I"BASSVS 2.	*	*I"BASSVS	*	*I"TENOR	*	*I"TENOR P.	*	*I"ALTVS 2.	*	*I"ALTVS	*	*I"CANTVS Secundus	*	*I"CANTVS	*
*I'Coro B 2	*	*I'Coro B 1	*	*I'Coro T [2]	*	*I'Coro T [1]	*	*I'Coro A 2	*	*I'Coro A 1	*	*I'Coro S 2	*	*I'Coro S 1	*
*ICvox	*	*ICvox	*	*ICvox	*	*ICvox	*	*ICvox	*	*ICvox	*	*ICvox	*	*ICvox	*
*Ibass	*	*Ibass	*	*Itenor	*	*Itenor	*	*Ialto	*	*Ialto	*	*Isoprn	*	*Isoprn	*
*clefF4	*	*clefF4	*	*clefC4	*	*clefC4	*	*clefC3	*	*clefC3	*	*clefC1	*	*clefC1	*
*k[]	*	*k[]	*	*k[]	*	*k[]	*	*k[]	*	*k[]	*	*k[]	*	*k[]	*
*d:	*	*d:	*	*d:	*	*d:	*	*d:	*	*d:	*	*d:	*	*d:	*
*M2/1	*	*M2/1	*	*M2/1	*	*M2/1	*	*M2/1	*	*M2/1	*	*M2/1	*	*M2/1	*
*met(C|)	*	*met(C|)	*	*met(C|)	*	*met(C|)	*	*met(C|)	*	*met(C|)	*	*met(C|)	*	*met(C|)	*
=1-	=1-	=1-	=1-	=1-	=1-	=1-	=1-	=1-	=1-	=1-	=1-	=1-	=1-	=1-	=1-
!LO:TX:b:t=VEni ſancte ſpiritus.	!	!	!	!LO:TX:b:t=VEni ſancte ſpiritus.	!	!	!	!LO:TX:b:t=VEni ſancte ſpiritus.	!	!	!	!LO:TX:b:t=VEni ſancte ſpiritus.	!	!	!
!LO:TX:a:t=Secundus Chorus. Octo Vocum.	!	!LO:TX:a:t=Primus Chorus. Octo vocum.	!	!LO:TX:a:t=Secundus Chorus. Octo Vocum.	!	!	!	!LO:TX:a:t=Secundus Chorus. Octo Vocum.	!	!LO:TX:a:t=PrimusChorus. Octo Vocum.	!	!LO:TX:a:t=Secundus Chorus. Octo Vocum.	!	!LO:TX:a:t=Primus Chorus. Octo vocum.	!
!	!	!	!	!	!	!LO:TX:a:t=Primus Chorus. Octo Vocum.	!	!	!	!	!	!	!	!	!
00r	.	0AA	VE-	00r	.	0A	VE-	00r	.	0c#X	VE-	00r	.	0e	VE-
=2-	=2-	=2-	=2-	=2-	=2-	=2-	=2-	=2-	=2-	=2-	=2-	=2-	=2-	=2-	=2-
.	.	1D	-ni	.	.	1A	-ni	.	.	1d	-ni	.	.	1f#X	-ni
.	.	1.C	ſan-	.	.	1.c	ſan-	.	.	1.e	ſan-	.	.	1.g	ſan-
=3-	=3-	=3-	=3-	=3-	=3-	=3-	=3-	=3-	=3-	=3-	=3-	=3-	=3-	=3-	=3-
00r	.	.	.	00r	.	.	.	00r	.	.	.	00r	.	.	.
.	.	2AA/	-cte	.	.	2c\	-cte	.	.	2f\	-cte	.	.	2a\	-cte
.	.	2C/	ſpi-	.	.	2c\	ſpi-	.	.	2e\	ſpi-	.	.	2g/	ſpi-
.	.	2D/	-ri-	.	.	2A/	-ri-	.	.	2d\	-ri-	.	.	2fny/	-ri-
=4-	=4-	=4-	=4-	=4-	=4-	=4-	=4-	=4-	=4-	=4-	=4-	=4-	=4-	=4-	=4-
.	.	2AA/	-tus	.	.	1A	-tus	.	.	1cny	-tus	.	.	2e/	-tus
.	.	1A	Et	.	.	.	.	.	.	.	.	.	.	1e	Et
.	.	.	.	.	.	1r	.	.	.	1.e	Et	.	.	.	.
.	.	2A\	e-	.	.	.	.	.	.	.	.	.	.	2cc\	e-
=5-	=5-	=5-	=5-	=5-	=5-	=5-	=5-	=5-	=5-	=5-	=5-	=5-	=5-	=5-	=5-
00r	.	1.G	-mit-	00r	.	0r	.	00r	.	.	.	00r	.	1.b	-mit-
.	.	.	.	.	.	.	.	.	.	2e\	e-	.	.	.	.
.	.	.	.	.	.	.	.	.	.	1.d	-mit-	.	.	.	.
.	.	2F#X\	-te	.	.	.	.	.	.	.	.	.	.	2a\	-te
=6-	=6-	=6-	=6-	=6-	=6-	=6-	=6-	=6-	=6-	=6-	=6-	=6-	=6-	=6-	=6-
.	.	2G\	cę-	.	.	1r	.	.	.	.	.	.	.	2b\	cę-
.	.	2E\	-li-	.	.	.	.	.	.	2c/	-te	.	.	2g/	-li-
.	.	0D	-tus	.	.	2r	.	.	.	2.f\	cę-	.	.	1a	-tus
.	.	.	.	.	.	1d\	Et	.	.	.	.	.	.	.	.
.	.	.	.	.	.	.	.	.	.	4f\	-li-	.	.	.	.
=7-	=7-	=7-	=7-	=7-	=7-	=7-	=7-	=7-	=7-	=7-	=7-	=7-	=7-	=7-	=7-
00r	.	.	.	00r	.	.	.	00r	.	2d\	-tus	00r	.	2r	.
*	*	*	*	*	*	*	*	*	*	*	*ij	*	*	*	*
.	.	.	.	.	.	2d\	emit-	.	.	2f\	Et	.	.	1a	Et
.	.	1r	.	.	.	1.c	-te	.	.	2e\	e-	.	.	.	.
.	.	.	.	.	.	.	.	.	.	1e\	-mit-	.	.	2a\	e-
=8-	=8-	=8-	=8-	=8-	=8-	=8-	=8-	=8-	=8-	=8-	=8-	=8-	=8-	=8-	=8-
.	.	0r	.	.	.	.	.	.	.	.	.	.	.	1.g	-mit-
.	.	.	.	.	.	2B\	.	.	.	2d\	-te	.	.	.	.
*	*	*	*	*	*	*	*	*	*	*custos:e	*	*	*	*	*
!	!	!	!	!	!	!	!	!	!	!LO:LB:g=original	!	!	!	!	!
.	.	.	.	.	.	2c\	cę-	.	.	2e\	cę-	.	.	.	.
.	.	.	.	.	.	2A/	-li-	.	.	2c/	-li-	.	.	2f/	-te
*	*	*	*	*	*	*	*	*	*	*	*	*	*	*custos:b	*
!	!	!	!	!	!	!	!	!	!	!	!	!	!	!LO:LB:g=original	!
=9-	=9-	=9-	=9-	=9-	=9-	=9-	=9-	=9-	=9-	=9-	=9-	=9-	=9-	=9-	=9-
00r	.	1GG	Lu-	00r	.	2G/	-tus	00r	.	2d\	-tus	00r	.	2.b\	cę-
*	*	*	*	*	*	*	*	*	*	*	*Xij	*	*	*	*
.	.	.	.	.	.	1d	Lu-	.	.	2g\	Lu-	.	.	.	.
.	.	.	.	.	.	.	.	.	.	.	.	.	.	4b\	-li-
*	*	*custos:AA	*	*	*	*	*	*	*	*	*	*	*	*	*
!	!	!LO:LB:g=original	!	!	!	!	!	!	!	!	!	!	!	!	!
.	.	1AA	-cis	.	.	.	.	.	.	2f\	-cis	.	.	1a	-tus
.	.	.	.	.	.	2c\	-cis	.	.	1e\	tu-	.	.	.	.
*	*	*	*	*	*	*custos:c	*	*	*	*	*	*	*	*	*
!	!	!	!	!	!	!LO:LB:g=original	!	!	!	!	!	!	!	!	!
=10-	=10-	=10-	=10-	=10-	=10-	=10-	=10-	=10-	=10-	=10-	=10-	=10-	=10-	=10-	=10-
.	.	1C	tu-	.	.	2r	.	.	.	.	.	.	.	2r	.
.	.	.	.	.	.	2c\	Lu-	.	.	2e\	-æ	.	.	1g	Lu-
.	.	1D	-æ	.	.	2B\	-cis	.	.	2.d\	ra-	.	.	.	.
.	.	.	.	.	.	2A/	tu-	.	.	.	.	.	.	2f/	-cis
.	.	.	.	.	.	.	.	.	.	4c/	.	.	.	.	.
=11-	=11-	=11-	=11-	=11-	=11-	=11-	=11-	=11-	=11-	=11-	=11-	=11-	=11-	=11-	=11-
*	*	*lig	*	*	*	*	*	*	*	*	*	*	*	*	*
0r	.	1GG	ra-	0r	.	2G/	-æ	0r	.	2B/	.	0r	.	2e/	tu-
.	.	.	.	.	.	2.G/	ra-	.	.	2B/	-di-	.	.	2d/	-æ
*	*	*Xlig	*	*	*	*	*	*	*	*	*	*	*	*	*
.	.	1.AA	.	.	.	.	.	.	.	0.A	-um	.	.	2c#X/	ra-
.	.	.	.	.	.	4F/	.	.	.	.	.	.	.	.	.
.	.	.	.	.	.	4F/	.	.	.	.	.	.	.	1d/	.
.	.	.	.	.	.	8E/	.	.	.	.	.	.	.	.	.
.	.	.	.	.	.	8D/	.	.	.	.	.	.	.	.	.
=12-	=12-	=12-	=12-	=12-	=12-	=12-	=12-	=12-	=12-	=12-	=12-	=12-	=12-	=12-	=12-
1r	.	.	.	1r	.	2E/	.	1r	.	.	.	1r	.	.	.
.	.	2AA/	-di-	.	.	2E/	-di-	.	.	.	.	.	.	2c#X/	-di-
2r	.	1D	-um	2r	.	1D	-um	2r	.	.	.	2r	.	1d	-um
1D\	Ve-	.	.	2A/	Ve-	.	.	1d\	Ve-	.	.	1f/	Ve-	.	.
=13-	=13-	=13-	=13-	=13-	=13-	=13-	=13-	=13-	=13-	=13-	=13-	=13-	=13-	=13-	=13-
.	.	00r	.	2A/	-ni	00r	.	.	.	00r	.	.	.	00r	.
2AA/	-ni	.	.	2.c\	pa-	.	.	2e\	-ni	.	.	2a\	-ni	.	.
2C/	pa-	.	.	.	.	.	.	2e\	pa-	.	.	4g/	pa-	.	.
.	.	.	.	4c\	-ter	.	.	.	.	.	.	4e/	-ter	.	.
2D/	-ter	.	.	2.B\	pau-	.	.	2d\	-ter	.	.	1f/	pau-	.	.
=14-	=14-	=14-	=14-	=14-	=14-	=14-	=14-	=14-	=14-	=14-	=14-	=14-	=14-	=14-	=14-
2.F\	pau-	.	.	.	.	.	.	2c/	pau-	.	.	.	.	.	.
.	.	.	.	4A/	.	.	.	.	.	.	.	.	.	.	.
.	.	.	.	1A	.	.	.	4B/	.	.	.	2d/	-pe-	.	.
4F\	-pe-	.	.	.	.	.	.	4A/	.	.	.	.	.	.	.
1E	-rum	.	.	.	.	.	.	2B/	.	.	.	1e	-rum	.	.
.	.	.	.	2G#X/	-pe-	.	.	2B/	-pe-	.	.	.	.	.	.
=15-	=15-	=15-	=15-	=15-	=15-	=15-	=15-	=15-	=15-	=15-	=15-	=15-	=15-	=15-	=15-
2r	.	00r	.	2A/	-rũ(m)	00r	.	2A/	-rum	00r	.	2r	.	00r	.
1AA	Ve-	.	.	1A	Ve-	.	.	1c#X	Ve-	.	.	1e	Ve-	.	.
2D/	-ni	.	.	2A/	-ni	.	.	2d\	-ni	.	.	2f#X/	-ni	.	.
*	*	*	*	*	*	*	*	*	*	*	*	*custos:g	*	*	*
!	!	!	!	!	!	!	!	!	!	!	!	!LO:LB:g=original	!	!	!
=16-	=16-	=16-	=16-	=16-	=16-	=16-	=16-	=16-	=16-	=16-	=16-	=16-	=16-	=16-	=16-
4C/	da-	.	.	1c	da-	.	.	1e	da-	.	.	2.g/	da-	.	.
4D/	.	.	.	.	.	.	.	.	.	.	.	.	.	.	.
4E\	.	.	.	.	.	.	.	.	.	.	.	.	.	.	.
4F\	.	.	.	.	.	.	.	.	.	.	.	4a\	.	.	.
*custos:G	*	*	*	*	*	*	*	*custos:d	*	*	*	*	*	*	*
!LO:LB:g=original	!	!	!	!	!	!	!	!LO:LB:g=original	!	!	!	!	!	!	!
2G\	.	.	.	2B\	-tor	.	.	2d\	-tor	.	.	2b\	.	.	.
2E\	-tor	.	.	1e\	mu-	.	.	1g\	mu-	.	.	2b\	-tor	.	.
=17-	=17-	=17-	=17-	=17-	=17-	=17-	=17-	=17-	=17-	=17-	=17-	=17-	=17-	=17-	=17-
2.A\	mu-	00r	.	.	.	00r	.	.	.	00r	.	2cc\	mu-	00r	.
.	.	.	.	2c\	-ne-	.	.	2f\	-ne-	.	.	2cc\	-ne-	.	.
4A\	-ne-	.	.	.	.	.	.	.	.	.	.	.	.	.	.
*	*	*	*	*custos:d	*	*	*	*	*	*	*	*	*	*	*
!	!	!	!	!LO:LB:g=original	!	!	!	!	!	!	!	!	!	!	!
2G\	-rum	.	.	1d	-rum	.	.	2g\	-rum	.	.	2b\	-rum	.	.
1GG/	Ve-	.	.	.	.	.	.	2g\	Ve-	.	.	1b\	Ve-	.	.
=18-	=18-	=18-	=18-	=18-	=18-	=18-	=18-	=18-	=18-	=18-	=18-	=18-	=18-	=18-	=18-
.	.	.	.	2.Gny/	Ve-	.	.	2d\	-ni	.	.	.	.	.	.
2C/	-ni	.	.	.	.	.	.	1e	lu-	.	.	2cc\	-ni	.	.
.	.	.	.	4G/	-ni	.	.	.	.	.	.	.	.	.	.
2AA/	lu-	.	.	2A/	lu-	.	.	.	.	.	.	2cc\	lu-	.	.
2D/	-men	.	.	2F/	-men	.	.	1d\	-men	.	.	2a\	-men	.	.
=19-	=19-	=19-	=19-	=19-	=19-	=19-	=19-	=19-	=19-	=19-	=19-	=19-	=19-	=19-	=19-
1.AA	cor-	0r	.	1.E	cor-	0r	.	.	.	0r	.	1.a	cor-	0r	.
.	.	.	.	.	.	.	.	4c#X/	cor-	.	.	.	.	.	.
.	.	.	.	.	.	.	.	4B/	.	.	.	.	.	.	.
.	.	.	.	.	.	.	.	2c#X/	.	.	.	.	.	.	.
2AA/	-di-	.	.	2E/	-di-	.	.	2c#/	-di-	.	.	2a\	-di-	.	.
=20-	=20-	=20-	=20-	=20-	=20-	=20-	=20-	=20-	=20-	=20-	=20-	=20-	=20-	=20-	=20-
*M3/1	*	*M3/1	*	*M3/1	*	*M3/1	*	*M3/1	*	*M3/1	*	*M3/1	*	*M3/1	*
*met(O|3/2)	*	*met(O|3/2)	*	*met(O|3/2)	*	*met(O|3/2)	*	*met(O|3/2)	*	*met(O|3/2)	*	*met(O|3/2)	*	*met(O|3/2)	*
!	!	!	!	!	!	!	!	!LO:N:vis=0	!	!	!	!	!	!	!
0D	-um	0D	Con-	0.D	-um	0F	Con-	0.d	-um	0A	Con-	0a	-um	0dd	Con-
1r	.	1BB	-ſo-	.	.	1D	-ſo-	.	.	1G	-ſo-	1r	.	1dd	-ſo-
*	*	*	*	*	*	*	*	*	*	*custos:A	*	*	*	*custos:cc	*
!	!	!	!	!	!	!	!	!	!	!LO:LB:g=original	!	!	!	!LO:LB:g=original	!
=21-	=21-	=21-	=21-	=21-	=21-	=21-	=21-	=21-	=21-	=21-	=21-	=21-	=21-	=21-	=21-
!LO:N:vis=00	!	!	!	!LO:N:vis=00	!	!	!	!LO:N:vis=00	!	!	!	!LO:N:vis=00	!	!	!
1%3r	.	0AA	-la-	1%3r	.	0E	-la-	1%3r	.	0A	-la-	1%3r	.	0cc	-la-
.	.	1D	-tor	.	.	1F#X	-tor	.	.	1A	-tor	.	.	1a	-tor
*	*	*	*	*	*	*custos:G	*	*	*	*	*	*	*	*	*
!	!	!	!	!	!	!LO:LB:g=original	!	!	!	!	!	!	!	!	!
=22-	=22-	=22-	=22-	=22-	=22-	=22-	=22-	=22-	=22-	=22-	=22-	=22-	=22-	=22-	=22-
*	*	*	*	*	*	*	*	*	*	*	*	*	*	*lig	*
1%3ryy	.	0E	op-	1%3ryy	.	0G	op-	1%3ryy	.	0e	op-	1%3ryy	.	1cc	op-
.	.	.	.	.	.	.	.	.	.	.	.	.	.	1b	.
*	*	*	*	*	*	*	*	*	*	*	*	*	*	*Xlig	*
.	.	1E	-ti-	.	.	1G	-ti-	.	.	1g	-ti-	.	.	1cc#X	-ti-
=23-	=23-	=23-	=23-	=23-	=23-	=23-	=23-	=23-	=23-	=23-	=23-	=23-	=23-	=23-	=23-
!LO:N:vis=00	!	!	!	!LO:N:vis=00	!	!	!	!LO:N:vis=00	!	!	!	!LO:N:vis=00	!	!	!
1%3r	.	0D	-me	1%3r	.	0A	-me	1%3r	.	0f#X	-me	1%3r	.	0dd	-me
.	.	1r	.	.	.	1r	.	.	.	1r	.	.	.	1r	.
*	*	*custos:A	*	*	*	*	*	*	*	*	*	*	*	*	*
!	!	!LO:LB:g=original	!	!	!	!	!	!	!	!	!	!	!	!	!
=24-	=24-	=24-	=24-	=24-	=24-	=24-	=24-	=24-	=24-	=24-	=24-	=24-	=24-	=24-	=24-
1%3ryy	.	0A	dul-	1%3ryy	.	0c	dul-	1%3ryy	.	0e	dul-	1%3ryy	.	0ccny	dul-
.	.	1Fny	-cis	.	.	1d	-cis	.	.	1fny	-cis	.	.	1a	-cis
=25-	=25-	=25-	=25-	=25-	=25-	=25-	=25-	=25-	=25-	=25-	=25-	=25-	=25-	=25-	=25-
*	*	*	*	*	*	*	*	*	*	*	*	*	*	*lig	*
!LO:N:vis=00	!	!	!	!LO:N:vis=00	!	!	!	!LO:N:vis=00	!	!	!	!LO:N:vis=00	!	!	!
1%3r	.	0E	hoſ-	1%3r	.	0e	hoſ-	1%3r	.	0g	hoſ-	1%3r	.	1cc	hoſ-
.	.	.	.	.	.	.	.	.	.	.	.	.	.	1b	.
*	*	*	*	*	*	*	*	*	*	*	*	*	*	*Xlig	*
.	.	1E	-pes	.	.	1B	-pes	.	.	1G	-pes	.	.	1g	-pes
=26-	=26-	=26-	=26-	=26-	=26-	=26-	=26-	=26-	=26-	=26-	=26-	=26-	=26-	=26-	=26-
1%3ryy	.	0D	a-	1%3ryy	.	0d	a-	1%3ryy	.	0A	a-	1%3ryy	.	0f	a-
.	.	1C#X	-ni-	.	.	1e	-ni-	.	.	1A	-ni-	.	.	1e	-ni-
*	*	*	*	*	*	*	*	*	*	*	*	*custos:a	*	*	*
!	!	!	!	!	!	!	!	!	!	!	!	!LO:LB:g=original	!	!	!
=27-	=27-	=27-	=27-	=27-	=27-	=27-	=27-	=27-	=27-	=27-	=27-	=27-	=27-	=27-	=27-
*M2/1	*	*M2/1	*	*M2/1	*	*M2/1	*	*M2/1	*	*M2/1	*	*M2/1	*	*M2/1	*
*met(C|)	*	*met(C|)	*	*met(C|)	*	*met(C|)	*	*met(C|)	*	*met(C|)	*	*met(C|)	*	*met(C|)	*
00r	.	2D/	-mę	00r	.	2d\	-mę	00r	.	2A/	-mę	00r	.	2f#X/	-mę
.	.	1D	Dul-	.	.	1A	Dul-	.	.	1d	Du'-	.	.	1f#	Dul-
.	.	2D/	-ce	.	.	2F#X/	-ce	.	.	2d\	-ce	.	.	2a\	-ce
=28-	=28-	=28-	=28-	=28-	=28-	=28-	=28-	=28-	=28-	=28-	=28-	=28-	=28-	=28-	=28-
.	.	2GG/	re-	.	.	2G/	re-	.	.	2d\	re-	.	.	2b-X\	re-
.	.	2GG/	-fri-	.	.	2G/	-fri-	.	.	1e	-fri-	.	.	2b-\	-fri-
.	.	1.AA	-ge-	.	.	2.Fny/	-ge-	.	.	.	.	.	.	1.a	-ge-
.	.	.	.	.	.	.	.	.	.	1d\	-ge-	.	.	.	.
.	.	.	.	.	.	8E/	.	.	.	.	.	.	.	.	.
.	.	.	.	.	.	8D/	.	.	.	.	.	.	.	.	.
=29-	=29-	=29-	=29-	=29-	=29-	=29-	=29-	=29-	=29-	=29-	=29-	=29-	=29-	=29-	=29-
1r	.	.	.	1r	.	2E/	.	1r	.	.	.	1r	.	.	.
.	.	2AA/	-ri-	.	.	2E/	-ri-	.	.	2c#X/	-ri-	.	.	2a\	-ri-
2r	.	1D	-um	2r	.	1D	-um	2r	.	1d	-um	2r	.	1f#X	-um
2D/	In	.	.	2A/	In	.	.	2d\	In	.	.	2a\	In	.	.
*custos:D	*	*	*	*	*	*	*	*custos:d	*	*	*	*	*	*	*
!LO:LB:g=original	!	!	!	!	!	!	!	!LO:LB:g=original	!	!	!	!	!	!	!
=30-	=30-	=30-	=30-	=30-	=30-	=30-	=30-	=30-	=30-	=30-	=30-	=30-	=30-	=30-	=30-
2D/	la-	00r	.	2A/	la-	00r	.	2d\	la-	00r	.	2f#X/	la-	00r	.
1C	-bo-	.	.	2.c\	-bo-	.	.	1e	-bo-	.	.	1g	-bo-	.	.
.	.	.	.	4C/	-re	.	.	.	.	.	.	.	.	.	.
2BB/	-re	.	.	1G/	re-	.	.	2d\	-re	.	.	2g/	-re	.	.
=31-	=31-	=31-	=31-	=31-	=31-	=31-	=31-	=31-	=31-	=31-	=31-	=31-	=31-	=31-	=31-
2.AA/	re-	.	.	.	.	.	.	2cny/	re-	.	.	2.a\	re-	.	.
.	.	.	.	2F/	-qui-	.	.	2A/	-qvi-	.	.	.	.	.	.
4AA/	-qui-	.	.	.	.	.	.	.	.	.	.	4a\	-qui-	.	.
*	*	*	*	*custos:G	*	*	*	*	*	*	*	*	*	*	*
!	!	!	!	!LO:LB:g=original	!	!	!	!	!	!	!	!	!	!	!
1GG	-es	.	.	1G	-es	.	.	1d	-es	.	.	1b	-es	.	.
=32-	=32-	=32-	=32-	=32-	=32-	=32-	=32-	=32-	=32-	=32-	=32-	=32-	=32-	=32-	=32-
2r	.	00r	.	2r	.	00r	.	2r	.	00r	.	2r	.	00r	.
2G\	in	.	.	2B\	in	.	.	2d\	in	.	.	2g/	in	.	.
1E	æſ-	.	.	2B\	æſ-	.	.	1e	æſ-	.	.	1g	æ-	.	.
.	.	.	.	2c\	-tu	.	.	.	.	.	.	.	.	.	.
=33-	=33-	=33-	=33-	=33-	=33-	=33-	=33-	=33-	=33-	=33-	=33-	=33-	=33-	=33-	=33-
2F\	-tu	.	.	1A	tem-	.	.	2c/	-tu	.	.	2a\	-ſtu	.	.
2D/	tem-	.	.	.	.	.	.	2d\	tem-	.	.	2fny/	tem-	.	.
2.C/	-pe-	.	.	2c\	-pe-	.	.	4e\	-pe-	.	.	2.g/	-pe-	.	.
.	.	.	.	.	.	.	.	2f\	.	.	.	.	.	.	.
.	.	.	.	2c\	-ri-	.	.	.	.	.	.	.	.	.	.
4C/	-ri-	.	.	.	.	.	.	4e\	-ri-	.	.	4g/	-ri-	.	.
=34-	=34-	=34-	=34-	=34-	=34-	=34-	=34-	=34-	=34-	=34-	=34-	=34-	=34-	=34-	=34-
1F	-es	00r	.	2c\	-es	00r	.	2f\	-es	00r	.	2a\	-es	00r	.
.	.	.	.	2c\	In	.	.	2f\	In	.	.	1a	In	.	.
1r	.	.	.	1d	fle-	.	.	1f	fle-	.	.	.	.	.	.
.	.	.	.	.	.	.	.	.	.	.	.	2b-X\	fle-	.	.
=35-	=35-	=35-	=35-	=35-	=35-	=35-	=35-	=35-	=35-	=35-	=35-	=35-	=35-	=35-	=35-
0r	.	.	.	2c\	-tu	.	.	2e\	-tu	.	.	2a\	-tu	.	.
.	.	.	.	4A/	ſo-	.	.	4e\	ſo-	.	.	4a\	ſo-	.	.
.	.	.	.	4.d\	-la-	.	.	4.f\	-la-	.	.	4.b-yX\	-la-	.	.
.	.	.	.	8c\	.	.	.	8e\	.	.	.	8a\	.	.	.
.	.	.	.	8B-X\	.	.	.	8d\	.	.	.	2a\	.	.	.
.	.	.	.	8A\	.	.	.	8c\	.	.	.	.	.	.	.
.	.	.	.	4B-X\	.	.	.	4d\	.	.	.	.	.	.	.
.	.	.	.	4B-\	-ti-	.	.	4d\	-ti-	.	.	4g/	-ti-	.	.
=36-	=36-	=36-	=36-	=36-	=36-	=36-	=36-	=36-	=36-	=36-	=36-	=36-	=36-	=36-	=36-
2r	.	00r	.	2A/	-um	00r	.	2e\	-um	00r	.	1a	-um	00r	.
*	*	*	*	*	*ij	*	*	*	*ij	*	*	*	*	*	*
2A\	in	.	.	2c\	In	.	.	1e	In	.	.	.	.	.	.
1A	fle-	.	.	1c	ſo-	.	.	.	.	.	.	1r	.	.	.
.	.	.	.	.	.	.	.	2f\	fle-	.	.	.	.	.	.
!	!	!	!	!	!	!	!	!	!	!	!	!LO:LB:g=original	!	!	!
=37-	=37-	=37-	=37-	=37-	=37-	=37-	=37-	=37-	=37-	=37-	=37-	=37-	=37-	=37-	=37-
2G#X\	-tu	.	.	2Bny\	-la-	.	.	2e\	-tu	.	.	0r	.	.	.
*	*	*	*	*	*	*	*	*custos:e	*	*	*	*	*	*	*
!	!	!	!	!	!	!	!	!LO:LB:g=original	!	!	!	!	!	!	!
4G#\	ſo-	.	.	4B\	.	.	.	4e\	ſo-	.	.	.	.	.	.
4.A\	-la-	.	.	4.c\	.	.	.	4.f\	-la-	.	.	.	.	.	.
8Gny\	.	.	.	8B\	.	.	.	8e\	.	.	.	.	.	.	.
8F\	.	.	.	8A\	.	.	.	2e\	.	.	.	.	.	.	.
8E\	.	.	.	8G/	.	.	.	.	.	.	.	.	.	.	.
4F\	.	.	.	4A/	.	.	.	.	.	.	.	.	.	.	.
4F\	-ti-	.	.	4A/	-ti-	.	.	4d\	-ti-	.	.	.	.	.	.
*	*	*	*	*custos:B	*	*	*	*	*	*	*	*	*	*	*
!	!	!	!	!LO:LB:g=original	!	!	!	!	!	!	!	!	!	!	!
=38-	=38-	=38-	=38-	=38-	=38-	=38-	=38-	=38-	=38-	=38-	=38-	=38-	=38-	=38-	=38-
2E\	-um	00r	.	2B\	-um	00r	.	2e\	-um	00r	.	2r	.	00r	.
*	*ij	*	*	*	*Xij	*	*	*	*Xij	*	*	*	*ij	*	*
2E\	in	.	.	2G#X/	In	.	.	2e\	In	.	.	2bny\	In	.	.
1AA	fle-	.	.	1A	fle-	.	.	1e	fle-	.	.	1cc	fle-	.	.
=39-	=39-	=39-	=39-	=39-	=39-	=39-	=39-	=39-	=39-	=39-	=39-	=39-	=39-	=39-	=39-
2E\	-tu	.	.	2G#X/	-tu	.	.	2e\	-tu	.	.	2b\	-tu	.	.
*custos:C#	*	*	*	*	*	*	*	*	*	*	*	*	*	*	*
!LO:LB:g=original	!	!	!	!	!	!	!	!	!	!	!	!	!	!	!
4C#X/	ſo-	.	.	2A/	ſo-	.	.	4e\	so-	.	.	2a\	ſo-	.	.
4.D/	-la-	.	.	.	.	.	.	4.f\	-la-	.	.	.	.	.	.
.	.	.	.	2F/	-la-	.	.	.	.	.	.	2.b-X\	-la-	.	.
8Cny/	.	.	.	.	.	.	.	8e\	.	.	.	.	.	.	.
8BB-X/	.	.	.	.	.	.	.	2d\	.	.	.	.	.	.	.
8AA/	.	.	.	.	.	.	.	.	.	.	.	.	.	.	.
4GG/	.	.	.	2E/	-ti-	.	.	.	.	.	.	.	.	.	.
4AA/	-ti-	.	.	.	.	.	.	4c#X/	-ti-	.	.	4a\	-ti-	.	.
*	*	*	*	*	*	*	*	*	*	*	*	*	*	*custos:a	*
!	!	!	!	!	!	!	!	!	!	!	!	!	!	!LO:LB:g=original	!
=40-	=40-	=40-	=40-	=40-	=40-	=40-	=40-	=40-	=40-	=40-	=40-	=40-	=40-	=40-	=40-
1D	-um	2r	.	1D	-um	2r	.	1d	-um	2r	.	1f	-um	2r	.
.	.	1D	O	.	.	1d	O	.	.	1f#X	O	.	.	1a	O
1r	.	.	.	1r	.	.	.	1r	.	.	.	1r	.	.	.
.	.	2Cny/	lux	.	.	2e\	lux	.	.	2g\	lux	.	.	2cc\	lux
*	*Xij	*	*	*	*	*custos:d	*	*	*	*custos:g	*	*	*Xij	*	*
!	!	!	!	!	!	!LO:LB:g=original	!	!	!	!LO:LB:g=original	!	!	!	!	!
=41-	=41-	=41-	=41-	=41-	=41-	=41-	=41-	=41-	=41-	=41-	=41-	=41-	=41-	=41-	=41-
0r	.	2G\	be-	0r	.	2d\	be-	0r	.	2g\	be-	0r	.	2bny\	be-
.	.	2A\	-a-	.	.	2c\	-a-	.	.	2e\	-a-	.	.	2a\	-a-
.	.	2.E\	-tiſ-	.	.	2.B\	-tiſ-	.	.	2.e\	-tiſ-	.	.	2.g#X/	-tiſ-
.	.	4D/	-ſi-	.	.	4d\	-ſi-	.	.	4f#X\	-ſi-	.	.	4a\	-ſi-
*	*	*custos:D	*	*	*	*	*	*	*	*	*	*	*	*	*
!	!	!LO:LB:g=original	!	!	!	!	!	!	!	!	!	!	!	!	!
=42-	=42-	=42-	=42-	=42-	=42-	=42-	=42-	=42-	=42-	=42-	=42-	=42-	=42-	=42-	=42-
2r	.	1D	-ma	2r	.	1d	-ma	2r	.	1f#yX	-ma	2r	.	1a	-ma
1D	O	.	.	1d	O	.	.	1f#X	O	.	.	1a	O	.	.
.	.	1r	.	.	.	1r	.	.	.	1r	.	.	.	1r	.
2C/	lux	.	.	2e\	lux	.	.	2g\	lux	.	.	2cc\	lux	.	.
=43-	=43-	=43-	=43-	=43-	=43-	=43-	=43-	=43-	=43-	=43-	=43-	=43-	=43-	=43-	=43-
2G\	be-	0r	.	2d\	be-	0r	.	2g\	be-	0r	.	2bny\	be-	0r	.
2A\	-a-	.	.	2c\	-a-	.	.	2e\	-a-	.	.	2a\	-a-	.	.
2.E\	-tis-	.	.	2.B\	-tiſ-	.	.	2.e\	-tiſ-	.	.	2.g#X/	-tiſ-	.	.
4D/	-ſi-	.	.	4d\	-ſi-	.	.	4f#X\	-ſi-	.	.	4a\	-ſi-	.	.
=44-	=44-	=44-	=44-	=44-	=44-	=44-	=44-	=44-	=44-	=44-	=44-	=44-	=44-	=44-	=44-
1D	-ma	1r	.	1d	-ma	1r	.	1f#yX	-ma	1r	.	1a	-ma	1r	.
1.GG	Re-	1.G	Re-	2r	.	1.B	Re-	2r	.	1.g	Re-	1.b	Re-	1.dd	Re-
.	.	.	.	2D/	Re-	.	.	1g\	Re-	.	.	.	.	.	.
=45-	=45-	=45-	=45-	=45-	=45-	=45-	=45-	=45-	=45-	=45-	=45-	=45-	=45-	=45-	=45-
.	.	.	.	2D/	-ple	.	.	.	.	.	.	.	.	.	.
2GG/	-pre	2G\	-ple	1Gny	cor-	2B\	-ple	2d\	-ple	2g\	-ple	2b\	-ple	2dd\	-ple
*	*	*	*	*	*	*	*	*custos:d	*	*	*	*	*	*	*
!	!	!	!	!	!	!	!	!LO:LB:g=original	!	!	!	!	!	!	!
0G	cor-	0GG	cor-	.	.	2d\	cor-	1.d	cor-	2.g\	cor-	4b\	cor-	4dd\	cor-
.	.	.	.	.	.	.	.	.	.	.	.	4a\	.	4cc\	.
.	.	.	.	2d\	-dis	2D/	-dis	.	.	.	.	4b\	.	4b\	.
.	.	.	.	.	.	.	.	.	.	8fny\	.	4cc\	.	4a\	.
.	.	.	.	.	.	.	.	.	.	8e\	.	.	.	.	.
=46-	=46-	=46-	=46-	=46-	=46-	=46-	=46-	=46-	=46-	=46-	=46-	=46-	=46-	=46-	=46-
.	.	.	.	2.B\	in-	2r	.	.	.	1d	.	1dd	.	1b	.
.	.	.	.	.	.	1G	in-	2g\	-dis	.	.	.	.	.	.
.	.	.	.	4B\	-ti-	.	.	.	.	.	.	.	.	.	.
0C	-dis	1C	-dis	1G	-ma	.	.	2.e\	in-	2e\	-dis	2cc\	-dis	2cc\	-dis
.	.	.	.	.	.	2G/	-ti-	.	.	1g\	in-	1ee\	in-	1cc\	in-
.	.	.	.	.	.	.	.	4e\	-ti-	.	.	.	.	.	.
=47-	=47-	=47-	=47-	=47-	=47-	=47-	=47-	=47-	=47-	=47-	=47-	=47-	=47-	=47-	=47-
.	.	2.E\	in-	2r	.	0G	-ma	1cny	-ma	.	.	.	.	.	.
.	.	.	.	2C/	tu-	.	.	.	.	2g\	-ti-	2ee\	-ti-	2cc\	-ti-
.	.	4F\	.	.	.	.	.	.	.	.	.	.	.	.	.
1.GG	in-	1.G	.	2D/	-o-	.	.	2r	.	1g	-ma	1dd	-ma	0b	-ma
.	.	.	.	2D/	-rum	.	.	2B/	tu-	.	.	.	.	.	.
*	*	*	*	*custos:D	*	*	*	*	*	*	*	*custos:dd	*	*	*
!	!	!	!	!LO:LB:g=original	!	!	!	!	!	!	!	!LO:LB:g=original	!	!	!
=48-	=48-	=48-	=48-	=48-	=48-	=48-	=48-	=48-	=48-	=48-	=48-	=48-	=48-	=48-	=48-
.	.	.	.	2D/	fi-	1r	.	1B	-o-	0d	tu-	2r	.	.	.
2GG/	-ti-	2G\	-ti-	1G	-de-	.	.	.	.	.	.	2dd\	tu-	.	.
1D	-ma	1D	-ma	.	.	2r	.	1A	-rum	.	.	1dd	-o-	2r	.
.	.	.	.	4F#X/	.	1A\	tu-	.	.	.	.	.	.	2a\	tu-
.	.	.	.	4E/	.	.	.	.	.	.	.	.	.	.	.
=49-	=49-	=49-	=49-	=49-	=49-	=49-	=49-	=49-	=49-	=49-	=49-	=49-	=49-	=49-	=49-
1D	tu-	1D	tu-	2F#X/	.	.	.	1A	fi-	1d	-o-	2a\	-rum	2.dd\	-o-
.	.	.	.	2F#/	-li-	2.d\	-o-	.	.	.	.	2a\	fi-	.	.
.	.	.	.	.	.	.	.	.	.	.	.	.	.	4cc\	.
1GG	-o-	1G	-o-	2G/	-um	.	.	1.G	-de-	2d\	-rum	2.b\	-de-	4b\	.
.	.	.	.	.	.	4c\	.	.	.	.	.	.	.	4a\	.
*	*	*	*	*	*ij	*	*	*	*	*	*	*	*	*	*
.	.	.	.	2D/	tu-	4B\	.	.	.	2d\	fi-	.	.	2.gny/	.
.	.	.	.	.	.	4A/	.	.	.	.	.	4b\	-li-	.	.
=50-	=50-	=50-	=50-	=50-	=50-	=50-	=50-	=50-	=50-	=50-	=50-	=50-	=50-	=50-	=50-
1C	-rum	1E	-rum	2E/	-o-	1G	.	.	.	2.cny/	-de-	2cc\	-um	.	.
.	.	.	.	.	.	.	.	.	.	.	.	.	.	4fny/	.
.	.	.	.	1G	-rum	.	.	2G/	-li-	.	.	4gny/	fi-	2e/	.
.	.	.	.	.	.	.	.	.	.	4c/	-li-	4a\	.	.	.
*	*	*	*	*	*	*	*	*	*	*	*	*	*	*custos:d	*
!	!	!	!	!	!	!	!	!	!	!	!	!	!	!LO:LB:g=original	!
1BBny	fi-	1G	fi-	.	.	2G/	-rum	1d	-um	1d	-um	4b\	.	2d/	-rum
.	.	.	.	.	.	.	.	.	.	.	.	4cc\	.	.	.
.	.	.	.	2D/	fi-	2G/	fi-	.	.	.	.	1dd\	.	2d/	fi-
*custos:AA	*	*	*	*	*	*	*	*	*	*	*	*	*	*	*
!LO:LB:g=original	!	!	!	!	!	!	!	!	!	!	!	!	!	!	!
=51-	=51-	=51-	=51-	=51-	=51-	=51-	=51-	=51-	=51-	=51-	=51-	=51-	=51-	=51-	=51-
1.AA	-de-	1.A	-de-	2Fny/	-de-	4F/	-de-	2r	.	2r	.	.	.	1.a	-de-
.	.	.	.	.	.	4G/	.	.	.	.	.	.	.	.	.
.	.	.	.	4E/	.	1A	.	2A/	fi-	2e\	fi-	4cc#X\	-de-	.	.
.	.	.	.	4D/	.	.	.	.	.	.	.	4b\	.	.	.
.	.	.	.	2E/	.	.	.	2.A/	-de-	2e\	-de-	2cc#X\	.	.	.
2AA/	-li-	2A\	-li-	2E/	-li-	2A/	-li-	.	.	2e\	-li-	2cc#\	-li-	2a\	-li-
.	.	.	.	.	.	.	.	4A/	-li-	.	.	.	.	.	.
*	*	*	*	*	*	*custos:A	*	*	*	*custos:f#	*	*	*	*	*
!	!	!	!	!	!	!LO:LB:g=original	!	!	!	!LO:LB:g=original	!	!	!	!	!
=52-	=52-	=52-	=52-	=52-	=52-	=52-	=52-	=52-	=52-	=52-	=52-	=52-	=52-	=52-	=52-
1D	-um	2D/	-um	1D	-um	2A/	-um	1F#X	-um	2f#X\	-um	1dd	-um	2a\	-um
.	.	1D	ſi-	.	.	1A	ſi-	.	.	1f#	ſi-	.	.	1dd	ſi-
1r	.	.	.	1r	.	.	.	1r	.	.	.	1r	.	.	.
.	.	2BB/	-ne	.	.	2G/	-ne	.	.	2g\	-ne	.	.	2dd\	-ne
=53-	=53-	=53-	=53-	=53-	=53-	=53-	=53-	=53-	=53-	=53-	=53-	=53-	=53-	=53-	=53-
0r	.	2C/	tu-	0r	.	2G/	tu-	0r	.	2e\	tu-	0r	.	2cc\	tu-
.	.	2GG/	-o	.	.	2d\	-o-	.	.	2g\	-o	.	.	2b\	-o
.	.	2.D/	nu-	.	.	2.d\	-nu-	.	.	2.f#X\	nu-	.	.	2.a\	nu-
.	.	4D/	-mi-	.	.	4d\	-mi-	.	.	4f#\	-mi-	.	.	4a\	-mi-
*	*	*custos:GG	*	*	*Xij	*	*	*	*	*	*	*	*	*	*
!	!	!LO:LB:g=original	!	!	!	!	!	!	!	!	!	!	!	!	!
=54-	=54-	=54-	=54-	=54-	=54-	=54-	=54-	=54-	=54-	=54-	=54-	=54-	=54-	=54-	=54-
2r	.	1GG	-ne	2r	.	1d	-ne	2r	.	1g	-ne	2r	.	1b	-ne
1G	Ni-	.	.	1B	ni-	.	.	1d	ni-	.	.	1g	ni-	.	.
.	.	1r	.	.	.	1r	.	.	.	1r	.	.	.	1r	.
2E\	-hil	.	.	2c\	-hil	.	.	2e\	-hil	.	.	2g/	-hil	.	.
=55-	=55-	=55-	=55-	=55-	=55-	=55-	=55-	=55-	=55-	=55-	=55-	=55-	=55-	=55-	=55-
2F\	eſt	0r	.	2A/	eſt	0r	.	2c/	eſt	0r	.	2a\	eſt	0r	.
2C/	in	.	.	2c\	in	.	.	2e\	in	.	.	2g/	in	.	.
2.G\	ho-	.	.	2.B\	ho-	.	.	2.d\	ho-	.	.	2.g/	ho-	.	.
4G\	-mi-	.	.	4B\	-mi-	.	.	4d\	-mi-	.	.	4g/	-mi-	.	.
=56-	=56-	=56-	=56-	=56-	=56-	=56-	=56-	=56-	=56-	=56-	=56-	=56-	=56-	=56-	=56-
1C	-ne	2r	.	1c	-ne	2r	.	1e	-ne	2r	.	1g	-ne	2r	.
.	.	1C	ni-	.	.	1e	ni-	.	.	1g	ni-	.	.	1cc	ni-
1r	.	.	.	1r	.	.	.	1r	.	.	.	1r	.	.	.
.	.	2C/	-hil	.	.	2e\	-hil	.	.	2g\	-hil	.	.	2cc\	-hil
=57-	=57-	=57-	=57-	=57-	=57-	=57-	=57-	=57-	=57-	=57-	=57-	=57-	=57-	=57-	=57-
0r	.	2D/	eſt	0r	.	2d\	eſt	0r	.	2fny\	eſt	0r	.	2b\	eſt
.	.	2D/	in-	.	.	2d\	in-	.	.	2f\	in-	.	.	2a\	in-
.	.	2.E\	-no-	.	.	2.B\	-no-	.	.	2.e\	-no-	.	.	2.g#X/	-no-
.	.	4E\	-xi-	.	.	4B\	-xi-	.	.	4e\	-xi-	.	.	4g#/	-xi-
*	*	*	*	*	*	*	*	*custos:e	*	*	*	*custos:a	*	*	*
!	!	!	!	!	!	!	!	!LO:LB:g=original	!	!	!	!LO:LB:g=original	!	!	!
=58-	=58-	=58-	=58-	=58-	=58-	=58-	=58-	=58-	=58-	=58-	=58-	=58-	=58-	=58-	=58-
*M3/1	*	*M3/1	*	*M3/1	*	*M3/1	*	*M3/1	*	*M3/1	*	*M3/1	*	*M3/1	*
*met(O|3/2)	*	*met(O|3/2)	*	*met(O|3/2)	*	*met(O|3/2)	*	*met(O|3/2)	*	*met(O|3/2)	*	*met(O|3/2)	*	*met(O|3/2)	*
!	!	!LO:N:vis=0	!	!	!	!LO:N:vis=0	!	!	!	!	!	!	!	!	!
1r	.	0.AA	-um	1r	.	0.A	-um	1r	.	0e	-um	1r	.	0.a	-um
1A	La-	.	.	1c#X	La-	.	.	1e	La-	.	.	1a	La-	.	.
1A	-ua	.	.	1c#	-ua	.	.	1f#X	-va	1r	.	1a	-ua	.	.
*	*	*	*	*custos:d	*	*	*	*	*	*	*	*	*	*	*
!	!	!	!	!LO:LB:g=original	!	!	!	!	!	!	!	!	!	!	!
=59-	=59-	=59-	=59-	=59-	=59-	=59-	=59-	=59-	=59-	=59-	=59-	=59-	=59-	=59-	=59-
!	!	!LO:N:vis=00	!	!	!	!LO:N:vis=00	!	!	!	!LO:N:vis=00	!	!	!	!LO:N:vis=00	!
0G	quod	1%3r	.	0d	quod	1%3r	.	0g	quod	1%3r	.	0b	quod	1%3r	.
1E	eſt	.	.	1e	eſt	.	.	1g	eſt	.	.	1ccny	eſt	.	.
=60-	=60-	=60-	=60-	=60-	=60-	=60-	=60-	=60-	=60-	=60-	=60-	=60-	=60-	=60-	=60-
1.F	ſor-	1%3ryy	.	1.A	ſor-	1%3ryy	.	1c	ſor-	1%3ryy	.	1.a	ſor-	1%3ryy	.
.	.	.	.	.	.	.	.	1d	-di-	.	.	.	.	.	.
2F\	-di-	.	.	2A/	-di-	.	.	.	.	.	.	2a\	-di-	.	.
1E	-dum	.	.	1B	-dum	.	.	1e	-num	.	.	1g#X	-dum	.	.
=61-	=61-	=61-	=61-	=61-	=61-	=61-	=61-	=61-	=61-	=61-	=61-	=61-	=61-	=61-	=61-
!	!	!LO:N:vis=00	!	!	!	!O:N:vis=00	!	!	!	!LO:N:vis=00	!	!	!	!LO:N:vis=00	!
0F	ri-	1%3r	.	0A	ri-	1%3r	.	0c	ri-	1%3r	.	0a	ri-	1%3r	.
1F	-ga	.	.	1A	-ga	.	.	1d	-ga	.	.	1a	-ga	.	.
=62-	=62-	=62-	=62-	=62-	=62-	=62-	=62-	=62-	=62-	=62-	=62-	=62-	=62-	=62-	=62-
0E	quod	1%3ryy	.	0B	quod	1%3ryy	.	0e	quod	1%3ryy	.	0gny	quod	1%3ryy	.
1C	eſt	.	.	1cny	eſt	.	.	1e	eſt	.	.	1g	eſt	.	.
*custos:D	*	*	*	*	*	*	*	*	*	*	*	*	*	*	*
!LO:LB:g=original	!	!	!	!	!	!	!	!	!	!	!	!	!	!	!
=63-	=63-	=63-	=63-	=63-	=63-	=63-	=63-	=63-	=63-	=63-	=63-	=63-	=63-	=63-	=63-
!	!	!LO:N:vis=00	!	!	!	!O:N:vis=00	!	!	!	!LO:N:vis=00	!	!	!	!LO:N:vis=00	!
1.D	a-	1%3r	.	1.A	a-	1%3r	.	1.d	a-	1%3r	.	1.f	a-	1%3r	.
2D/	-ri-	.	.	2B\	-ri-	.	.	2d\	-ri-	.	.	2f/	-ri-	.	.
1C	-dum	.	.	1c	-dum	.	.	1G	-dum	.	.	1e	-dum	.	.
=64-	=64-	=64-	=64-	=64-	=64-	=64-	=64-	=64-	=64-	=64-	=64-	=64-	=64-	=64-	=64-
0D	ſa-	1%3ryy	.	0A	ſa-	1%3ryy	.	0d	ſa-	1%3ryy	.	0f	ſa-	1%3ryy	.
1D	-na	.	.	1A	-na	.	.	1d	-na	.	.	1f	-na	.	.
=65-	=65-	=65-	=65-	=65-	=65-	=65-	=65-	=65-	=65-	=65-	=65-	=65-	=65-	=65-	=65-
!	!	!LO:N:vis=00	!	!	!	!O:N:vis=00	!	!	!	!LO:N:vis=00	!	!	!	!LO:N:vis=00	!
0C	quod	1%3r	.	0c	quod	1%3r	.	0e	quod	1%3r	.	0g	quod	1%3r	.
1AA	eſt	.	.	1C	eſt	.	.	1fny	eſt	.	.	1a	eſt	.	.
=66-	=66-	=66-	=66-	=66-	=66-	=66-	=66-	=66-	=66-	=66-	=66-	=66-	=66-	=66-	=66-
0BB-X	ſau-	1%3ryy	.	0D	ſau-	1%3ryy	.	0d	ſau-	1%3ryy	.	0f	ſau-	1%3ryy	.
1BB-	-ci-	.	.	1D	-ci-	.	.	1d	-ci-	.	.	1g	-ci-	.	.
*	*	*	*	*	*	*	*	*	*	*	*	*	*	*custos:a	*
!	!	!	!	!	!	!	!	!	!	!	!	!	!	!LO:LB:g=original	!
=67-	=67-	=67-	=67-	=67-	=67-	=67-	=67-	=67-	=67-	=67-	=67-	=67-	=67-	=67-	=67-
!	!	!	!	!	!	!	!	!LO:N:vis=0	!	!	!	!LO:N:vis=0	!	!	!
0.AA	-um	1r	.	0E	-um	1r	.	0.c#X	-um	1r	.	0.a	-um	1r	.
.	.	1A	Flec-	.	.	1c#X	Fle-	.	.	1e	Flec-	.	.	1a	Flec-
.	.	1A	-te	1r	.	1c#	-cte	.	.	1f#X	-te	.	.	1a	-te
*	*	*	*	*	*	*	*	*	*	*custos:g	*	*	*	*	*
!	!	!	!	!	!	!	!	!	!	!LO:LB:g=original	!	!	!	!	!
=68-	=68-	=68-	=68-	=68-	=68-	=68-	=68-	=68-	=68-	=68-	=68-	=68-	=68-	=68-	=68-
!LO:N:vis=00	!	!	!	!LO:N:vis=00	!	!	!	!LO:N:vis=00	!	!	!	!LO:N:vis=00	!	!	!
1%3r	.	0G	quod	1%3r	.	0d	quod	1%3r	.	0g	quod	1%3r	.	0b	quod
.	.	1E	eſt	.	.	1e	eſt	.	.	1g	eſt	.	.	1cc	eſt
*	*	*	*	*	*	*custos:A	*	*	*	*	*	*	*	*	*
!	!	!	!	!	!	!LO:LB:g=original	!	!	!	!	!	!	!	!	!
=69-	=69-	=69-	=69-	=69-	=69-	=69-	=69-	=69-	=69-	=69-	=69-	=69-	=69-	=69-	=69-
1%3ryy	.	1.F	ri-	1%3ryy	.	1.A	ri-	1%3ryy	.	1c	ri-	1%3ryy	.	1.a	ri-
.	.	.	.	.	.	.	.	.	.	1d	-gi-	.	.	.	.
.	.	2F\	-gi-	.	.	2A/	-gi-	.	.	.	.	.	.	2a\	-gi-
.	.	1E	-dum	.	.	1B	-dum	.	.	1e	-dum	.	.	1g#X	-dum
=70-	=70-	=70-	=70-	=70-	=70-	=70-	=70-	=70-	=70-	=70-	=70-	=70-	=70-	=70-	=70-
!LO:N:vis=00	!	!	!	!LO:N:vis=00	!	!	!	!LO:N:vis=00	!	!	!	!LO:N:vis=00	!	!	!
1%3r	.	0F	fo-	1%3r	.	0A	fo-	1%3r	.	0c	fo-	1%3r	.	0a	fo-
.	.	1F	-ue	.	.	1A	-ue	.	.	1d	-ue	.	.	1a	-ue
*	*	*custos:E	*	*	*	*	*	*	*	*	*	*	*	*	*
!	!	!LO:LB:g=original	!	!	!	!	!	!	!	!	!	!	!	!	!
=71-	=71-	=71-	=71-	=71-	=71-	=71-	=71-	=71-	=71-	=71-	=71-	=71-	=71-	=71-	=71-
1%3ryy	.	0E	quod	1%3ryy	.	0B	quod	1%3ryy	.	0e	quod	1%3ryy	.	0gny	quod
.	.	1C	eſt	.	.	1cny	eſt	.	.	1e	eſt	.	.	1g	eſt
=72-	=72-	=72-	=72-	=72-	=72-	=72-	=72-	=72-	=72-	=72-	=72-	=72-	=72-	=72-	=72-
!LO:N:vis=00	!	!	!	!LO:N:vis=00	!	!	!	!LO:N:vis=00	!	!	!	!LO:N:vis=00	!	!	!
1%3r	.	1.D	fri-	1%3r	.	1.A	fri-	1%3r	.	1.d	fri-	1%3r	.	1.f	fri-
.	.	2D/	-gi-	.	.	2B\	-gi-	.	.	2d\	-gi-	.	.	2f/	-gi-
.	.	1C	-dum	.	.	1c	-dum	.	.	1G	-dum	.	.	1e	-dum
=73-	=73-	=73-	=73-	=73-	=73-	=73-	=73-	=73-	=73-	=73-	=73-	=73-	=73-	=73-	=73-
1%3ryy	.	0C	reg-	1%3ryy	.	0e	reg-	1%3ryy	.	0g	reg-	1%3ryy	.	0cc	reg-
.	.	1D	-ge	.	.	1d	-ge	.	.	1fny	-ge	.	.	1b	-ge
=74-	=74-	=74-	=74-	=74-	=74-	=74-	=74-	=74-	=74-	=74-	=74-	=74-	=74-	=74-	=74-
*	*	*	*	*	*	*col	*	*	*	*	*	*	*	*	*
!LO:N:vis=00	!	!	!	!LO:N:vis=00	!	!	!	!LO:N:vis=00	!	!	!	!LO:N:vis=00	!	!	!
1%3r	.	0E	quod	1%3r	.	0B	quod	1%3r	.	0e	quod	1%3r	.	0g#X	quod
.	.	1F	eſt	.	.	0A	eſt	.	.	1c	eſt	.	.	1a	eſt
=75-	=75-	=75-	=75-	=75-	=75-	=75-	=75-	=75-	=75-	=75-	=75-	=75-	=75-	=75-	=75-
1%3ryy	.	0D	de-	1%3ryy	.	.	.	1%3ryy	.	0f	de-	1%3ryy	.	0a	de-
.	.	.	.	.	.	1.B	de-	.	.	.	.	.	.	.	.
.	.	1E	-ui-	.	.	.	.	.	.	1e	-ui-	.	.	1g#X	-ui-
*	*	*	*	*	*	*Xcol	*	*	*	*	*	*	*	*	*
.	.	.	.	.	.	2B\	-ui-	.	.	.	.	.	.	.	.
*	*	*	*	*	*	*	*	*custos:e	*	*	*	*custos:a	*	*	*
!	!	!	!	!	!	!	!	!LO:LB:g=original	!	!	!	!LO:LB:g=original	!	!	!
=76-	=76-	=76-	=76-	=76-	=76-	=76-	=76-	=76-	=76-	=76-	=76-	=76-	=76-	=76-	=76-
*M2/1	*	*M2/1	*	*M2/1	*	*M2/1	*	*M2/1	*	*M2/1	*	*M2/1	*	*M2/1	*
*met(C|)	*	*met(C|)	*	*met(C|)	*	*met(C|)	*	*met(C|)	*	*met(C|)	*	*met(C|)	*	*met(C|)	*
2r	.	0AA	-um	2r	.	0A	-um	2r	.	0e	-um	2r	.	0a	-um
2A\	Da	.	.	2c\	Da	.	.	2e\	Da	.	.	2a\	Da	.	.
*	*	*	*	*custos:c	*	*	*	*	*	*	*	*	*	*	*
!	!	!	!	!LO:LB:g=original	!	!	!	!	!	!	!	!	!	!	!
2A\	tu-	.	.	2c\	tu-	.	.	2e\	tu-	.	.	2a\	tu-	.	.
2.A\	-is	.	.	2.c\	-is	.	.	2.e\	-is	.	.	2.a\	-is	.	.
=77-	=77-	=77-	=77-	=77-	=77-	=77-	=77-	=77-	=77-	=77-	=77-	=77-	=77-	=77-	=77-
.	.	00r	.	.	.	00r	.	.	.	0r	.	.	.	00r	.
4E\	fi-	.	.	4B\	fi-	.	.	4e\	fi-	.	.	4g/	fi-	.	.
4F\	-de-	.	.	4A/	-de-	.	.	4cny/	-de-	.	.	4f/	-de-	.	.
4D/	-li-	.	.	4B\	-li-	.	.	4d\	-li-	.	.	4f/	-li-	.	.
2C/	-bus	.	.	2c\	-bus	.	.	2G/	-bus	.	.	2e/	-bus	.	.
2C/	in	.	.	2e\	in	.	.	2c/	in	.	.	2.g/	in	.	.
=78-	=78-	=78-	=78-	=78-	=78-	=78-	=78-	=78-	=78-	=78-	=78-	=78-	=78-	=78-	=78-
4BBny/	te	.	.	4d\	te	.	.	4d\	te	00r	.	.	.	.	.
2C/	con-	.	.	2c\	con-	.	.	2e\	con-	.	.	4g/	te	.	.
.	.	.	.	.	.	.	.	.	.	.	.	4g/	con-	.	.
4D/	-fi-	.	.	4A/	-fi-	.	.	4d\	-fi-	.	.	4f/	-fi-	.	.
*custos:AA	*	*	*	*	*	*	*	*	*	*	*	*	*	*	*
!LO:LB:g=original	!	!	!	!	!	!	!	!	!	!	!	!	!	!	!
2.AA/	-den-	.	.	2.A/	-den-	.	.	2.c#X/	-den-	.	.	2.e/	-den-	.	.
4AA/	-ti-	.	.	4A/	-ti-	.	.	4c#/	-ti-	.	.	4e/	-ti-	.	.
=79-	=79-	=79-	=79-	=79-	=79-	=79-	=79-	=79-	=79-	=79-	=79-	=79-	=79-	=79-	=79-
1D	-bus	00r	.	1A	-bus	00r	.	1d	-bus	.	.	1f#X	-bus	00r	.
1C	ſac-	.	.	1c	ſa-	.	.	1.e	ſac-	.	.	1.g	ſac-	.	.
=80-	=80-	=80-	=80-	=80-	=80-	=80-	=80-	=80-	=80-	=80-	=80-	=80-	=80-	=80-	=80-
1E	-rum	.	.	2B\	-crũ(m)	.	.	.	.	00r	.	.	.	.	.
.	.	.	.	2.c\	ſep-	.	.	2e\	-rum	.	.	2g/	-rum	.	.
1F	ſep-	.	.	.	.	.	.	1A	ſep-	.	.	1a	ſep-	.	.
.	.	.	.	4c\	-te-	.	.	.	.	.	.	.	.	.	.
.	.	.	.	2.d\	-na-	.	.	.	.	.	.	.	.	.	.
=81-	=81-	=81-	=81-	=81-	=81-	=81-	=81-	=81-	=81-	=81-	=81-	=81-	=81-	=81-	=81-
1G	-te-	0r	.	.	.	00r	.	2B/	-te-	.	.	2d/	-te-	0r	.
.	.	.	.	4c\	.	.	.	.	.	.	.	.	.	.	.
.	.	.	.	4B\	.	.	.	1d	-na-	.	.	1g	-na-	.	.
.	.	.	.	8A/	.	.	.	.	.	.	.	.	.	.	.
.	.	.	.	8G/	.	.	.	.	.	.	.	.	.	.	.
2.D/	-na-	.	.	2.A/	.	.	.	.	.	.	.	.	.	.	.
.	.	.	.	.	.	.	.	2d\	-ri-	.	.	2f#X/	-ri-	.	.
4D/	-ri-	.	.	4A/	-ri-	.	.	.	.	.	.	.	.	.	.
*	*	*	*	*	*	*	*	*	*	*	*	*	*	*custos:g	*
!	!	!	!	!	!	!	!	!	!	!	!	!	!	!LO:LB:g=original	!
=82-	=82-	=82-	=82-	=82-	=82-	=82-	=82-	=82-	=82-	=82-	=82-	=82-	=82-	=82-	=82-
0GG	-um	2r	.	0G	-um	.	.	0d	-um	2r	.	0g	-um	2r	.
.	.	1G	Da	.	.	.	.	.	.	1B	Da	.	.	1gny	Da
.	.	2G\	vir-	.	.	.	.	.	.	2B/	vir-	.	.	2d/	vir-
*	*	*	*	*	*	*	*	*	*	*custos:c	*	*	*	*	*
!	!	!	!	!	!	!	!	!	!	!LO:LB:g=original	!	!	!	!	!
=83-	=83-	=83-	=83-	=83-	=83-	=83-	=83-	=83-	=83-	=83-	=83-	=83-	=83-	=83-	=83-
00r	.	0C	-tu-	00r	.	2r	.	00r	.	2.c/	-tu-	00r	.	2.e/	-tu-
.	.	.	.	.	.	1c	Da	.	.	.	.	.	.	.	.
.	.	.	.	.	.	.	.	.	.	4d\	.	.	.	4f/	.
*	*	*	*	*	*	*	*	*	*	*	*	*	*	*lig	*
*	*	*	*	*	*	*	*	*	*	*	*	*	*	*col	*
.	.	.	.	.	.	.	.	.	.	1e	.	.	.	1g	.
.	.	.	.	.	.	2c\	vir-	.	.	.	.	.	.	.	.
=84-	=84-	=84-	=84-	=84-	=84-	=84-	=84-	=84-	=84-	=84-	=84-	=84-	=84-	=84-	=84-
.	.	1D	-tis	.	.	0F	-tu-	.	.	2A/	-tis	.	.	2.f/	.
.	.	.	.	.	.	.	.	.	.	2.f\	me-	.	.	.	.
*	*	*	*	*	*	*	*	*	*	*	*	*	*	*Xlig	*
*	*	*	*	*	*	*	*	*	*	*	*	*	*	*Xcol	*
.	.	.	.	.	.	.	.	.	.	.	.	.	.	8e/	.
.	.	.	.	.	.	.	.	.	.	.	.	.	.	8d/	.
.	.	1F	me-	.	.	.	.	.	.	.	.	.	.	2cny/	.
.	.	.	.	.	.	.	.	.	.	4e\	.	.	.	.	.
.	.	.	.	.	.	.	.	.	.	1d\	.	.	.	2d/	.
=85-	=85-	=85-	=85-	=85-	=85-	=85-	=85-	=85-	=85-	=85-	=85-	=85-	=85-	=85-	=85-
0r	.	1E	-ri-	0r	.	1G	-tis	0r	.	.	.	0r	.	2e/	-tis
.	.	.	.	.	.	.	.	.	.	2c#X/	-ri-	.	.	1g	me-
*	*	*	*	*	*	*custos:B-	*	*	*	*	*	*	*	*	*
!	!	!	!	!	!	!LO:LB:g=original	!	!	!	!	!	!	!	!	!
.	.	1D	-tum	.	.	2B-X\	me-	.	.	0d	-tum	.	.	.	.
.	.	.	.	.	.	2A/	-ri-	.	.	.	.	.	.	2f#X/	-ri-
*	*	*	*	*	*	*	*	*custos:g	*	*	*	*	*	*	*
!	!	!	!	!	!	!	!	!LO:LB:g=original	!	!	!	!	!	!	!
=86-	=86-	=86-	=86-	=86-	=86-	=86-	=86-	=86-	=86-	=86-	=86-	=86-	=86-	=86-	=86-
2r	.	00r	.	2r	.	1G	-tum	2r	.	.	.	2r	.	1g	-tum
1G	Da	.	.	1d	Da	.	.	1g	Da	.	.	1b	Da	.	.
!	!	!	!	!	!	!	!	!	!	!LO:TX:t=P:problem: Verovio nie wyświetla pauzy	!	!	!	!	!
.	.	.	.	.	.	1r	.	.	.	1r	.	.	.	1r	.
2G\	ſa-	.	.	2d\	ſa-	.	.	2g\	ſa-	.	.	2b\	ſa-	.	.
*	*	*	*	*custos:e	*	*	*	*	*	*	*	*custos:cc	*	*	*
!	!	!	!	!LO:LB:g=original	!	!	!	!	!	!	!	!LO:LB:g=original	!	!	!
=87-	=87-	=87-	=87-	=87-	=87-	=87-	=87-	=87-	=87-	=87-	=87-	=87-	=87-	=87-	=87-
2C/	-lu-	.	.	2e\	-lu-	00r	.	2g\	-lu-	00r	.	2cc\	-lu-	00r	.
2D/	-tis	.	.	2d\	-tis	.	.	2f\	-tis	.	.	2b\	-tis	.	.
2F\	ex-	.	.	4c\	e-	.	.	2f\	ex-	.	.	4a\	e-	.	.
.	.	.	.	4B\	.	.	.	.	.	.	.	4g/	.	.	.
2E\	-i-	.	.	4A/	.	.	.	2cny/	-i-	.	.	1g\	.	.	.
.	.	.	.	4G/	.	.	.	.	.	.	.	.	.	.	.
=88-	=88-	=88-	=88-	=88-	=88-	=88-	=88-	=88-	=88-	=88-	=88-	=88-	=88-	=88-	=88-
1D	-um	0r	.	2A/	.	.	.	0d	-tum	.	.	.	.	.	.
.	.	.	.	2A/	-xi-	.	.	.	.	.	.	2f#X/	-xi-	.	.
1r	.	.	.	1G	-tum	.	.	.	.	.	.	1g	-tum	.	.
*	*	*custos:GG	*	*	*	*	*	*	*	*	*	*	*	*	*
!	!	!LO:LB:g=original	!	!	!	!	!	!	!	!	!	!	!	!	!
=89-	=89-	=89-	=89-	=89-	=89-	=89-	=89-	=89-	=89-	=89-	=89-	=89-	=89-	=89-	=89-
1.G	Da	1.GG	Da	2r	.	1D	Da	1.d	Da	1.B	Da	1.b	Da	1.g	Da
.	.	.	.	1B	Da	.	.	.	.	.	.	.	.	.	.
.	.	.	.	.	.	2D/	per-	.	.	.	.	.	.	.	.
2G\	per-	2GG/	per-	2B\	per-	2.G/	-hen-	2d\	per-	2d\	per-	2b\	per-	2g/	per-
=90-	=90-	=90-	=90-	=90-	=90-	=90-	=90-	=90-	=90-	=90-	=90-	=90-	=90-	=90-	=90-
1C	-hen-	0C	-ben-	1G	-hẽ(n)-	.	.	0e	-hen-	1.cny	-ben-	1cc	-hen-	1g	-hen-
.	.	.	.	.	.	4F/	.	.	.	.	.	.	.	.	.
.	.	.	.	.	.	4E/	.	.	.	.	.	.	.	.	.
.	.	.	.	.	.	4D/	.	.	.	.	.	.	.	.	.
1C	-ne	.	.	1G	-ne	1E	.	.	.	.	.	2g/	-ne	2e/	-ne
.	.	.	.	.	.	.	.	.	.	2G/	-ne	2.cc\	gau-	2.ee\	gau-
*custos:A	*ij	*	*	*	*	*	*	*	*	*	*	*	*	*	*
!LO:LB:g=original	!	!	!	!	!	!	!	!	!	!	!	!	!	!	!
=91-	=91-	=91-	=91-	=91-	=91-	=91-	=91-	=91-	=91-	=91-	=91-	=91-	=91-	=91-	=91-
2r	.	0AA	-ne	2c\	gau-	2E/	-ne	1e	-ne	4A/	gau-	.	.	.	.
.	.	.	.	.	.	.	.	.	.	4B/	.	4b\	.	4dd\	.
*	*	*	*	*	*	*	*ij	*	*	*	*	*	*	*	*
1A	Da	.	.	2c\	-di-	1A	Da	.	.	4c/	.	4a\	.	4cc\	.
.	.	.	.	.	.	.	.	.	.	4d\	.	4g/	.	4b\	.
.	.	.	.	2A/	-um	.	.	1r	.	2e\	.	2a\	.	2cc#X\	.
2A\	per-	.	.	2e\	Da	2E/	per-	.	.	2A/	-di-	2a\	-di-	2cc#\	-di-
*	*	*	*	*	*	*	*	*	*	*	*	*	*	*custos:dd	*
!	!	!	!	!	!	!	!	!	!	!	!	!	!	!LO:LB:g=original	!
=92-	=92-	=92-	=92-	=92-	=92-	=92-	=92-	=92-	=92-	=92-	=92-	=92-	=92-	=92-	=92-
*	*	*lig	*	*	*	*	*	*	*	*	*	*	*	*	*
!	!	!	!	!	!	!	!	!	!	!LO:TX:t=P:problem:kreska pseudotaktowa	!	!	!	!	!
1D	-hen-	1D	gau-	2d\	per-	2.F/	-hen-	1.f	gau-	00A	-um.	1a	-um	2dd\	-um
.	.	.	.	1A	-hen-	.	.	.	.	.	.	.	.	4d/	gau-
.	.	.	.	.	.	4G/	.	.	.	.	.	.	.	4e/	.
*	*	*col	*	*	*	*	*	*	*	*	*	*	*	*	*
1D	-ne	2AA/	.	.	.	2A/	.	.	.	.	.	2r	.	4fny/	.
.	.	.	.	.	.	.	.	.	.	.	.	.	.	4g/	.
*	*	*Xlig	*	*	*	*	*	*	*	*	*	*	*	*	*
.	.	2AA/	-di-	2A/	-ne	2F/	-ne	4e\	.	.	.	1dd\	gau-	1a\	.
.	.	.	.	.	.	.	.	4d\	.	.	.	.	.	.	.
*	*Xij	*Xcol	*	*	*	*	*Xij	*	*	*	*	*	*	*	*
=93-	=93-	=93-	=93-	=93-	=93-	=93-	=93-	=93-	=93-	=93-	=93-	=93-	=93-	=93-	=93-
!	!	!LO:TX:t=P:problem:kreska pseudotaktowa	!	!	!	!	!	!	!	!	!	!	!	!	!
1.A	gau-	00D	-um	4A/	gau-	1.E	gau-	1.e	.	.	.	.	.	.	.
.	.	.	.	4B\	.	.	.	.	.	.	.	.	.	.	.
.	.	.	.	4c\	.	.	.	.	.	.	.	4cc#X\	.	2a\	-di-
.	.	.	.	4d\	.	.	.	.	.	.	.	4b\	.	.	.
!	!	!	!	!	!	!	!	!	!	!	!	!	!	!LO:TX:t=P:problem:kreska pseudotaktowa	!
!	!	!	!	!	!	!	!	!	!	!	!	!	!	!LO:N:vis=00	!
.	.	.	.	2e\	.	.	.	.	.	.	.	2cc#X\	.	0.a	-um.
2A\	-di-	.	.	2A/	-di-	2E/	-di-	2e\	-di-	.	.	2cc#\	-di-	.	.
=94-	=94-	=94-	=94-	=94-	=94-	=94-	=94-	=94-	=94-	=94-	=94-	=94-	=94-	=94-	=94-
!LO:TX:t=P:problem:kreska pseudotaktowa	!	!	!	!LO:TX:t=P:problem:kreska pseudotaktowa	!	!LO:TX:t=P:problem:kreska pseudotaktowa	!	!LO:TX:t=P:problem:kreska pseudotaktowa	!	!	!	!LO:TX:t=P:problem:kreska pseudotaktowa	!	!	!
0D	-um.	.	.	0A	-um.	0F#X	-um.	0d	-um.	0d	A-	0dd	-um	.	.
=95-	=95-	=95-	=95-	=95-	=95-	=95-	=95-	=95-	=95-	=95-	=95-	=95-	=95-	=95-	=95-
*	*	*	*	*lig	*	*Xlig	*	*lig	*	*	*	*	*	*	*
*	*	*	*	*	*	*lig	*	*	*	*	*	*	*	*	*
!	!	!	!	!	!	!	!	!	!	!LO:N:vis=00	!	!	!	!	!
0G	A-	0GG	A-	1B-X	A-	1G	A-	1d	A-	00.d	-men.	0dd	A-	0b-X	A-
*	*	*	*	*	*	*Xlig	*	*	*	*	*	*	*	*	*
.	.	.	.	1G	.	1D	.	1g	.	.	.	.	.	.	.
*	*	*	*	*Xlig	*	*	*	*Xlig	*	*	*	*	*	*	*
=96-	=96-	=96-	=96-	=96-	=96-	=96-	=96-	=96-	=96-	=96-	=96-	=96-	=96-	=96-	=96-
00D	-men.	00D	-men.	00A	-men.	00D	-men.	00f#X	-men.	.	.	00dd	-men.	00a	-men.
==	==	==	==	==	==	==	==	==	==	==	==	==	==	==	==
*-	*-	*-	*-	*-	*-	*-	*-	*-	*-	*-	*-	*-	*-	*-	*-
!!!system-decoration: [(s1,s2,s3,s4,s5,s6,s7,s8)]
!!!ENC: Berenika Jozajtis
!!!END: 2022-07-14
!!!ENC: Jan Barakat
!!!END: 2022-08-12
